app/img/quote.svg

<svg width="34" height="28" viewBox="0 0 34 28" fill="none" xmlns="http://www.w3.org/2000/svg">
<path d="M3.15108 4.48666C5.48941 1.95166 9.02775 0.666656 13.6661 0.666656H15.3327V5.36499L13.9927 5.63332C11.7094 6.08999 10.1211 6.98832 9.27108 8.30665C8.82757 9.01687 8.57603 9.83006 8.54108 10.6667H13.6661C14.1081 10.6667 14.532 10.8423 14.8446 11.1548C15.1572 11.4674 15.3327 11.8913 15.3327 12.3333V24C15.3327 25.8383 13.8377 27.3333 11.9994 27.3333H1.99941C1.55738 27.3333 1.13346 27.1577 0.820901 26.8452C0.50834 26.5326 0.332745 26.1087 0.332745 25.6667V17.3333L0.337745 12.4683C0.322745 12.2833 0.00607866 7.89999 3.15108 4.48666ZM30.3327 27.3333H20.3327C19.8907 27.3333 19.4668 27.1577 19.1542 26.8452C18.8417 26.5326 18.6661 26.1087 18.6661 25.6667V17.3333L18.6711 12.4683C18.6561 12.2833 18.3394 7.89999 21.4844 4.48666C23.8227 1.95166 27.3611 0.666656 31.9994 0.666656H33.6661V5.36499L32.3261 5.63332C30.0427 6.08999 28.4544 6.98832 27.6044 8.30665C27.1609 9.01687 26.9094 9.83006 26.8744 10.6667H31.9994C32.4414 10.6667 32.8654 10.8423 33.1779 11.1548C33.4905 11.4674 33.6661 11.8913 33.6661 12.3333V24C33.6661 25.8383 32.1711 27.3333 30.3327 27.3333Z" fill="#191041"/>
</svg>

<svg width="34" height="28" fill="none" xmlns="http://www.w3.org/2000/svg"><path d="M3.151 4.487C5.49 1.952 9.028.667 13.666.667h1.667v4.698l-1.34.268c-2.284.457-3.872 1.355-4.722 2.674a4.837 4.837 0 00-.73 2.36h5.125a1.667 1.667 0 011.667 1.666V24a3.337 3.337 0 01-3.334 3.333H2a1.667 1.667 0 01-1.666-1.666v-8.334l.005-4.865C.323 12.283.006 7.9 3.15 4.487zm27.182 22.846h-10a1.667 1.667 0 01-1.667-1.666v-8.334l.005-4.865c-.015-.185-.332-4.568 2.813-7.981C23.823 1.952 27.361.667 32 .667h1.667v4.698l-1.34.268c-2.283.457-3.872 1.355-4.722 2.674a4.837 4.837 0 00-.73 2.36H32a1.667 1.667 0 011.667 1.666V24a3.337 3.337 0 01-3.333 3.333z" fill="#191041"/></svg>
